src/assets/icons/how-to-keep-others-safe/dont-touch-pets.svg

<?xml version="1.0" encoding="UTF-8"?>
<svg width="48px" height="48px" viewBox="0 0 48 48" version="1.1" xmlns="http://www.w3.org/2000/svg" xmlns:xlink="http://www.w3.org/1999/xlink">
    <title>health-advice/dont-touch-pets</title>
    <defs>
        <polygon id="path-1" points="0.0002 0.0002 48 0.0002 48 48 0.0002 48"></polygon>
    </defs>
    <g id="NY-App" stroke="none" stroke-width="1" fill="none" fill-rule="evenodd">
        <g id="keep-safe" transform="translate(-20.000000, -1018.000000)">
            <g id="health-advice/dont-touch-pets" transform="translate(20.000000, 1018.000000)">
                <g id="Group-3">
                    <mask id="mask-2" fill="white">
                        <use xlink:href="#path-1"></use>
                    </mask>
                    <g id="Clip-2"></g>
                    <path d="M43.0322,48.0002 L4.9682,48.0002 C2.2242,48.0002 0.0002,45.7752 0.0002,43.0322 L0.0002,4.9682 C0.0002,2.2242 2.2242,0.0002 4.9682,0.0002 L43.0322,0.0002 C45.7762,0.0002 48.0002,2.2242 48.0002,4.9682 L48.0002,43.0322 C48.0002,45.7752 45.7762,48.0002 43.0322,48.0002" id="Fill-1" fill="#483066" mask="url(#mask-2)"></path>
                </g>
                <path d="M37.6992,37.197 C37.7432,36.84 38.0082,36.645 38.1682,36.53 C38.1762,36.526 38.1822,36.521 38.1842,36.52 C38.1912,36.514 38.1982,36.509 38.2042,36.504 C38.2132,36.498 38.2232,36.491 38.2302,36.485 C38.2372,36.48 38.2412,36.476 38.2472,36.471 C39.7162,35.347 40.6402,33.724 40.6402,31.919 C40.6402,31.005 40.4072,30.203 39.9822,29.423 L39.9802,24.414 C39.9812,24.255 39.8732,24.198 39.7412,24.287 L36.5272,26.386 C35.5712,25.997 34.4972,25.777 33.3642,25.777 C32.2482,25.777 31.1902,25.99 30.2452,26.369 L26.9522,24.283 C26.8192,24.197 26.7102,24.255 26.7102,24.414 L26.7072,29.42 C26.3062,30.182 26.0892,31.033 26.0892,31.919 C26.0892,33.733 27.0192,35.361 28.4982,36.485 C28.5102,36.493 28.5232,36.503 28.5352,36.512 C28.5392,36.514 28.5412,36.517 28.5452,36.52 C28.5472,36.521 28.5532,36.526 28.5612,36.53 C28.7212,36.645 28.9862,36.84 29.0302,37.197 C29.2112,38.643 26.7262,45.176 26.4062,45.77 L26.8362,45.77 L39.8932,45.77 L40.3232,45.77 C40.0032,45.176 37.5182,38.643 37.6992,37.197" id="Fill-4" fill="#FFFFFE"></path>
                <path d="M9.6821,26.9822 C10.0121,26.9992 10.3921,26.7972 10.6801,26.4012 C11.2181,25.6622 11.6031,24.3812 12.0651,23.0772 C11.7451,25.4122 11.4321,28.0772 11.5861,28.6032 C11.9311,29.7822 12.6061,30.3882 12.8691,30.9252 C12.8801,30.9482 12.8901,30.9712 12.9001,30.9932 C12.9421,31.0882 13.0041,31.2182 12.9581,31.5082 C12.9541,31.5362 12.9471,31.5642 12.9391,31.5942 C12.6451,32.7452 10.6771,35.2672 10.0161,36.1802 C9.7231,36.5852 9.4581,36.9622 9.2201,37.3202 C7.8431,39.3852 7.3581,40.7702 7.4621,42.8942 L8.4881,46.0002 L26.8201,45.7702 L26.8921,42.8942 C27.0151,40.4012 26.3251,38.9302 24.3371,36.1802 C23.6771,35.2672 21.7081,32.7452 21.4141,31.5942 C21.4071,31.5642 21.3991,31.5362 21.3941,31.5082 C21.3491,31.2182 21.4111,31.0882 21.4531,30.9932 C21.4641,30.9712 21.4731,30.9482 21.4841,30.9252 C21.7471,30.3882 22.4221,29.7822 22.7671,28.6032 C22.9211,28.0772 22.6071,25.4122 22.2871,23.0772 C22.7501,24.3812 23.1351,25.6622 23.6731,26.4012 C23.9611,26.7972 24.3411,26.9992 24.6711,26.9822 C25.0311,26.9992 25.3451,26.7682 25.4421,26.2612 C25.8051,24.3612 27.4541,22.5942 26.8691,20.7662 C26.4091,19.3282 25.7141,19.2082 24.7271,19.0222 C24.4341,18.9672 24.1321,18.8952 23.8281,18.8142 C22.8651,18.5112 21.0411,17.6002 19.7621,17.5042 C19.0811,17.4542 17.6851,17.7552 17.1771,17.7612 C16.6671,17.7552 15.3141,17.4942 14.5301,17.5042 C13.3781,17.5202 11.4891,18.5112 10.5251,18.8142 C10.2211,18.8952 9.9191,18.9672 9.6261,19.0222 C8.6391,19.2082 7.9441,19.3282 7.4841,20.7662 C6.8991,22.5942 8.5481,24.3612 8.9111,26.2612 C9.0081,26.7682 9.3221,26.9992 9.6821,26.9822" id="Fill-6" fill="#FFFFFE"></path>
                <path d="M39.666,13.2321 C38.857,14.8121 34.114,12.4061 30.472,10.9661 C29.401,10.5421 28.483,10.2651 27.746,10.0831 C27.859,9.9151 27.934,9.7641 27.986,9.6301 C28.151,9.2121 28.148,8.7861 27.979,8.3991 C27.563,7.4451 26.527,6.9581 25.015,6.9581 C24.128,6.9581 23.079,7.1261 21.894,7.4641 C19.45,8.1641 17.512,9.3121 16.891,9.6991 C17.683,9.4241 19.632,8.7621 21.911,8.1101 C24.345,7.4131 26.642,7.3991 27.196,8.6671 C27.706,9.8351 25.486,11.2611 22.312,12.6351 C20.348,13.4861 18.084,14.3121 16.139,14.8591 C12.888,15.8681 9.354,16.0971 8.392,13.4261 C7.227,10.1891 12.012,6.8081 17.004,4.3941 C18.84,3.5051 20.331,3.0521 22.135,3.0021 C24.353,2.9391 28.217,4.8031 31.184,6.4331 C36.889,9.5691 40.499,11.6071 39.666,13.2321" id="Fill-8" fill="#FFFFFE"></path>
                <path d="M27.3896,10.5168 C28.1426,10.6908 29.1216,10.9738 30.2866,11.4338 C30.9266,11.6878 31.6186,11.9778 32.2876,12.2588 C33.6676,12.8388 35.0736,13.4278 36.3026,13.8148 C36.2436,14.2568 35.7566,14.5448 34.8906,14.5428104 C33.2036,14.5408 29.3986,12.3128 27.0546,10.8318 C27.1816,10.7218 27.2936,10.6168 27.3896,10.5168" id="Fill-10" fill="#FFFFFE"></path>
                <path d="M26.6371,11.1643 C28.5061,12.3513 31.0831,13.8773 33.0461,14.6133 C32.8221,14.7313 32.4941,14.7833 32.0691,14.7463 C30.7631,14.6333 28.1571,12.8983 26.2041,11.4653 C26.3621,11.3613 26.5061,11.2613 26.6371,11.1643" id="Fill-12" fill="#FFFFFE"></path>
                <path d="M29.1562,14.6804 C28.1602,14.5324 26.6172,13.3674 25.0782,12.1334 C25.3182,12.0034 25.5392,11.8784 25.7402,11.7574 C27.1332,12.7864 28.6512,13.8934 30.0932,14.5864 C29.8862,14.7024 29.5712,14.7424 29.1562,14.6804" id="Fill-14" fill="#FFFFFE"></path>
                <line x1="3.6879" y1="3.6882" x2="44.3119" y2="44.3122" id="Stroke-16" stroke="#9E9F9E" stroke-width="4" stroke-linecap="round" stroke-linejoin="round"></line>
            </g>
        </g>
    </g>
</svg>

<svg width="48" height="48" xmlns="http://www.w3.org/2000/svg" xmlns:xlink="http://www.w3.org/1999/xlink"><defs><path id="a" d="M0 0h48v48H0z"/></defs><g fill="none" fill-rule="evenodd"><g><mask id="b" fill="#fff"><use xlink:href="#a"/></mask><path d="M43.032 48H4.968A4.968 4.968 0 010 43.032V4.968A4.968 4.968 0 014.968 0h38.064A4.968 4.968 0 0148 4.968v38.064A4.968 4.968 0 0143.032 48" fill="#483066" mask="url(#b)"/></g><path d="M37.7 37.197c.043-.357.308-.552.468-.667l.016-.01.02-.016a.293.293 0 00.026-.019l.017-.014c1.47-1.124 2.393-2.747 2.393-4.552 0-.914-.233-1.716-.658-2.496l-.002-5.009c.001-.159-.107-.216-.239-.127l-3.214 2.099a8.398 8.398 0 00-3.163-.609 8.382 8.382 0 00-3.119.592l-3.293-2.086c-.133-.086-.242-.028-.242.131l-.003 5.006a5.35 5.35 0 00-.618 2.499c0 1.814.93 3.442 2.41 4.566l.036.027.01.008.016.01c.16.115.425.31.47.667.18 1.446-2.305 7.979-2.625 8.573h13.917c-.32-.594-2.805-7.127-2.624-8.573" fill="#FFFFFE"/><path d="M9.682 26.982c.33.017.71-.185.998-.58.538-.74.923-2.02 1.385-3.325-.32 2.335-.633 5-.479 5.526.345 1.18 1.02 1.785 1.283 2.322l.031.068c.042.095.104.225.058.515a.744.744 0 01-.019.086c-.294 1.151-2.262 3.673-2.923 4.586-.293.405-.558.782-.796 1.14-1.377 2.065-1.862 3.45-1.758 5.574L8.488 46l18.332-.23.072-2.876c.123-2.493-.567-3.964-2.555-6.714-.66-.913-2.629-3.435-2.923-4.586-.007-.03-.015-.058-.02-.086-.045-.29.017-.42.06-.515l.03-.068c.263-.537.938-1.143 1.283-2.322.154-.526-.16-3.19-.48-5.526.463 1.304.848 2.585 1.386 3.324.288.396.668.598.998.581.36.017.674-.214.771-.72.363-1.9 2.012-3.668 1.427-5.496-.46-1.438-1.155-1.558-2.142-1.744a12.422 12.422 0 01-.899-.208c-.963-.303-2.787-1.214-4.066-1.31-.68-.05-2.077.251-2.585.257-.51-.006-1.863-.267-2.647-.257-1.152.016-3.04 1.007-4.005 1.31-.304.081-.606.153-.899.208-.987.186-1.682.306-2.142 1.744-.585 1.828 1.064 3.595 1.427 5.495.097.507.411.738.771.721M39.666 13.232c-.809 1.58-5.552-.826-9.194-2.266a21.298 21.298 0 00-2.726-.883c.113-.168.188-.319.24-.453a1.574 1.574 0 00-.007-1.23c-.416-.955-1.452-1.442-2.964-1.442-.887 0-1.936.168-3.121.506-2.444.7-4.382 1.848-5.003 2.235a98.565 98.565 0 015.02-1.589c2.434-.697 4.731-.71 5.285.557.51 1.168-1.71 2.594-4.884 3.968-1.964.851-4.228 1.677-6.173 2.224-3.251 1.01-6.785 1.238-7.747-1.433-1.165-3.237 3.62-6.618 8.612-9.032 1.836-.889 3.327-1.342 5.131-1.392 2.218-.063 6.082 1.801 9.049 3.431 5.705 3.136 9.315 5.174 8.482 6.8" fill="#FFFFFE"/><path d="M27.39 10.517c.753.174 1.732.457 2.897.917.64.254 1.332.544 2 .825 1.38.58 2.787 1.169 4.016 1.556-.06.442-.546.73-1.412.728-1.687-.002-5.492-2.23-7.836-3.711.127-.11.239-.215.335-.315M26.637 11.164c1.87 1.187 4.446 2.713 6.41 3.45-.225.117-.553.17-.978.132-1.306-.113-3.912-1.848-5.865-3.28a9.58 9.58 0 00.433-.302M29.156 14.68c-.996-.148-2.539-1.313-4.078-2.547.24-.13.461-.255.662-.376 1.393 1.03 2.911 2.136 4.353 2.83-.207.115-.522.155-.937.093" fill="#FFFFFE"/><path stroke="#9E9F9E" stroke-width="4" stroke-linecap="round" stroke-linejoin="round" d="M3.688 3.688l40.624 40.624"/></g></svg>
